packages/orbit-components/src/icons/svg/passport.svg

<!--character:86:550:509-->
  <svg width="24" height="24" viewBox="0 0 24 24" >
<path   d="M16.5833 2H7.41667C5.83333 2 4.5 3.33333 4.5 4.91667V19.0833C4.5 20.6667 5.83333 22 7.41667 22H16.5833C18.1667 22 19.5 20.6667 19.5 19.0833V4.91667C19.5 3.33333 18.1667 2 16.5833 2ZM13.9167 9.08333C13.9167 9.24999 14.0833 9.41666 14.25 9.41666H15.1667C15.3333 9.41666 15.5 9.24999 15.5 9.08333V8.99999C15.3333 8.24999 14.8333 7.49999 14.25 7.08333C14.0833 6.99999 13.9167 6.99999 13.75 7.16666C13.6667 7.16666 13.6667 7.33333 13.6667 7.41666C13.8333 7.99999 13.9167 8.49999 13.9167 9.08333ZM16.5833 9.91665C16.5833 7.41665 14.5 5.33331 12 5.33331C9.49999 5.33331 7.41666 7.41665 7.41666 9.91665C7.41666 12.4166 9.49999 14.5 12 14.5C14.5 14.5 16.5833 12.4166 16.5833 9.91665ZM16.1667 18.6667H7.83333C7.33333 18.6667 7 18.3333 7 17.8333C7 17.3333 7.33333 17 7.83333 17H16.1667C16.6667 17 17 17.3333 17 17.8333C17 18.3333 16.6667 18.6667 16.1667 18.6667ZM14.1667 12.75C14.0833 12.8333 14 12.8333 13.9167 12.8333C13.75 12.8333 13.5833 12.5833 13.6667 12.4166C13.6945 12.2222 13.7315 12.0278 13.7685 11.8333C13.8426 11.4444 13.9167 11.0555 13.9167 10.6666C13.9167 10.5 14.0833 10.3333 14.25 10.3333H15.1667H15.25C15.4167 10.4166 15.5833 10.5833 15.5 10.75C15.25 11.5833 14.8333 12.25 14.1667 12.75ZM12.6667 10.4167H11.4167C11.25 10.4167 11.0833 10.5834 11.0833 10.75C11.1667 11.6667 11.4167 12.6667 11.8333 13.5H12H12.1667C12.5833 12.6667 12.8333 11.75 12.9167 10.75C13 10.5834 12.8333 10.4167 12.6667 10.4167ZM10.3333 12.6666C10.1667 12.8333 10 12.8333 9.83333 12.75C9.16667 12.25 8.75 11.5833 8.5 10.75V10.6666C8.5 10.5 8.66667 10.3333 8.83333 10.3333H9.83333C10 10.3333 10.1667 10.5 10.1667 10.6666C10.1667 11.25 10.25 11.8333 10.4167 12.4166C10.4167 12.5 10.4167 12.5833 10.3333 12.6666ZM8.75 9.41667H9.75C9.91667 9.41667 10.0833 9.25 10.0833 9.08333C10.0833 8.5 10.1667 7.91667 10.3333 7.33333C10.3333 7.25 10.25 7.08333 10.0833 7C10 7 9.91667 7 9.83333 7.08333C9.16667 7.58333 8.75 8.25 8.5 9C8.5 9.16667 8.58333 9.33333 8.75 9.41667ZM12.5833 9.41665H11.3333C11.1667 9.41665 11 9.24998 10.9167 9.08331C11 8.08331 11.25 7.16665 11.6667 6.33331H11.75H11.9167H12.0833H12.1667C12.6667 7.16665 12.9167 8.16665 12.9167 9.08331C12.9167 9.24998 12.75 9.41665 12.5833 9.41665Z" />
</svg>

<!--character:86:550:509-->
<svg width="24" height="24" viewBox="0 0 24 24" xmlns="http://www.w3.org/2000/svg"><path d="M13.9167 9.0833c0 .1667.1666.3334.3333.3334h.9167c.1666 0 .3333-.1667.3333-.3334V9c-.1667-.75-.6667-1.5-1.25-1.9167-.1667-.0833-.3333-.0833-.5.0834-.0833 0-.0833.1666-.0833.25.1666.5833.25 1.0833.25 1.6666zM16.5833 2H7.4167C5.8333 2 4.5 3.3333 4.5 4.9167v14.1666C4.5 20.6667 5.8333 22 7.4167 22h9.1666c1.5834 0 2.9167-1.3333 2.9167-2.9167V4.9167C19.5 3.3333 18.1667 2 16.5833 2zM12 5.3333c2.5 0 4.5833 2.0834 4.5833 4.5834S14.5 14.5 12 14.5c-2.5 0-4.5833-2.0833-4.5833-4.5833 0-2.5 2.0833-4.5834 4.5833-4.5834zm4.1667 13.3334H7.8333c-.5 0-.8333-.3334-.8333-.8334S7.3333 17 7.8333 17h8.3334c.5 0 .8333.3333.8333.8333s-.3333.8334-.8333.8334zm-2.25-5.8334c.0833 0 .1666 0 .25-.0833.6666-.5 1.0833-1.1667 1.3333-2 .0833-.1667-.0833-.3333-.25-.4167h-1c-.1667 0-.3333.1667-.3333.3334 0 .5833-.1667 1.1666-.25 1.75-.0834.1666.0833.4166.25.4166zm-1.25-2.4166h-1.25c-.1667 0-.3334.1666-.3334.3333.0834.9167.3334 1.9167.75 2.75h.3334c.4166-.8333.6666-1.75.75-2.75.0833-.1667-.0834-.3333-.25-.3333zM9.8333 12.75c.1667.0833.3334.0833.5-.0833.0834-.0834.0834-.1667.0834-.25-.1667-.5834-.25-1.1667-.25-1.75 0-.1667-.1667-.3334-.3334-.3334h-1c-.1666 0-.3333.1667-.3333.3334v.0833c.25.8333.6667 1.5 1.3333 2zM8.75 9.4167s.0833 0 0 0h1c.1667 0 .3333-.1667.3333-.3334 0-.5833.0834-1.1666.25-1.75 0-.0833-.0833-.25-.25-.3333-.0833 0-.1666 0-.25.0833C9.1667 7.5833 8.75 8.25 8.5 9c0 .1667.0833.3333.25.4167zm2.5833 0h1.25c.1667 0 .3334-.1667.3334-.3334 0-.9166-.25-1.9166-.75-2.75H11.75h-.0833c-.4167.8334-.6667 1.75-.75 2.75.0833.1667.25.3334.4166.3334z"/></svg></svg>
